lib/brands/logos/documentum.svg

<svg xmlns="http://www.w3.org/2000/svg" fill="none" aria-hidden="true" viewBox="0 0 217 55"><g id="Documentum"><g id="Group"><path id="Vector" fill="black" fill-rule="evenodd" d="M66.343 42.33C66.343 39.0497 66.6787 37.3666 68.3618 37.3666C70.0724 37.3666 70.4093 39.0497 70.4093 42.33C70.4093 45.6125 70.0724 47.2956 68.3618 47.2956C66.6799 47.2956 66.343 45.6125 66.343 42.33ZM70.5777 49.8781H74.2762V29.8712H70.4104V36.198H70.3554C69.542 35.0007 68.5601 34.4163 67.1015 34.4163C63.9358 34.4163 62.4796 36.7261 62.4796 42.3288C62.4796 47.9704 63.9358 50.2791 67.1015 50.2791C68.6162 50.2791 69.6817 49.6948 70.5239 48.3027H70.5788V49.8781H70.5777ZM80.1893 42.3483C80.1893 39.2628 80.3566 37.0469 82.2631 37.0469C83.8328 37.0469 84.3369 38.5914 84.3369 42.3483C84.3369 46.1075 83.8339 47.6496 82.2631 47.6496C80.3577 47.6485 80.1893 45.4338 80.1893 42.3483ZM76.3247 42.3483C76.3247 47.5935 77.6125 50.3639 82.2631 50.2814C86.6891 50.2814 88.2026 47.511 88.2026 42.3483C88.2026 37.1054 86.9137 34.3327 82.2631 34.4175C77.8371 34.4175 76.3247 37.1879 76.3247 42.3483ZM97.679 40.2401C97.679 38.7793 97.3983 37.2085 95.9421 37.2085C94.0367 37.2085 93.7285 38.8939 93.7285 42.3735C93.7285 46.1063 94.0642 47.6496 95.8023 47.6496C97.0913 47.6496 97.679 46.5554 97.679 44.1139H101.379C101.379 48.0701 99.7265 50.2814 95.6339 50.2814C91.7693 50.2814 89.864 48.4058 89.864 42.3437C89.864 36.1475 92.4132 34.4175 95.9708 34.4175C99.5294 34.4175 101.379 36.678 101.379 40.2401H97.679ZM111.092 48.1389H111.036C110.221 49.6134 108.818 50.2802 107.189 50.2802C104.78 50.2802 103.35 48.9707 103.35 45.9791V34.815H107.216V45.1966C107.216 46.7067 107.721 47.2956 108.874 47.2956C110.194 47.2956 110.924 46.4833 110.924 44.8048V34.815H114.791V49.8769H111.091V48.1389H111.092ZM117.638 34.8196H121.333V36.3366H121.389C122.375 34.9743 123.587 34.4163 125.22 34.4163C126.984 34.4163 128.273 35.2779 128.693 36.8086H128.749C129.34 35.2218 130.747 34.4163 132.578 34.4163C135.125 34.4163 136.331 36.0009 136.331 38.9076V49.8815H132.466V39.3304C132.466 38.0655 132.043 37.3655 130.944 37.3655C129.705 37.3655 128.917 38.2064 128.917 39.9457V49.8815H125.05V39.3304C125.05 38.0655 124.629 37.3655 123.53 37.3655C122.291 37.3655 121.502 38.2064 121.502 39.9457V49.8815H117.638V34.8196ZM142.455 40.6377V40.0488C142.455 38.6453 142.905 37.0458 144.446 37.0458C146.042 37.0458 146.321 38.3371 146.404 40.6377H142.455ZM150.105 42.9429V42.0699C150.105 37.4399 149.095 34.4163 144.585 34.4163C139.373 34.4163 138.59 38.1686 138.59 42.2108C138.59 45.9677 138.816 50.2802 144.417 50.2802C148.061 50.2802 149.74 48.3222 149.882 44.8197H146.405C146.184 46.6677 145.651 47.6485 144.36 47.6485C142.932 47.6485 142.456 45.9115 142.456 44.146V42.9418H150.105V42.9429ZM152.396 34.8196H156.093V36.5589H156.15C156.964 35.0843 158.37 34.4175 159.996 34.4175C162.407 34.4175 163.836 35.7248 163.836 38.7186V49.8827H159.972V39.5011C159.972 37.991 159.464 37.4021 158.314 37.4021C156.992 37.4021 156.262 38.2145 156.262 39.893V49.8827H152.397V34.8196H152.396ZM167.518 30.5013H171.385V34.8162H173.624V37.4457H171.385V45.5976C171.385 46.7743 171.638 47.2509 172.756 47.2509C173.065 47.2509 173.374 47.2246 173.624 47.1948V49.8735C172.786 49.9583 172 50.0408 171.105 50.0408C168.079 50.0408 167.518 49.1208 167.518 46.0731V37.4445H165.557V34.815H167.518V30.5013ZM183.949 48.1389H183.89C183.078 49.6134 181.672 50.2802 180.044 50.2802C177.636 50.2802 176.206 48.9707 176.206 45.9791V34.815H180.073V45.1966C180.073 46.7067 180.576 47.2956 181.728 47.2956C183.048 47.2956 183.778 46.4833 183.778 44.8048V34.815H187.645V49.8769H183.948V48.1389H183.949ZM190.489 34.8196H194.186V36.3366H194.242C195.229 34.9743 196.437 34.4163 198.071 34.4163C199.834 34.4163 201.123 35.2779 201.544 36.8086H201.6C202.191 35.2218 203.598 34.4163 205.429 34.4163C207.976 34.4163 209.181 36.0009 209.181 38.9076V49.8815H205.317V39.3304C205.317 38.0655 204.894 37.3655 203.795 37.3655C202.556 37.3655 201.767 38.2064 201.767 39.9457V49.8815H197.9V39.3304C197.9 38.0655 197.48 37.3655 196.381 37.3655C195.141 37.3655 194.353 38.2064 194.353 39.9457V49.8815H190.489V34.8196Z" clip-rule="evenodd"/><path id="Vector_2" fill="#2360A5" fill-rule="evenodd" d="M48.238 29.9067H41.744C40.848 29.9033 38.9151 29.6867 37.4807 29.2571C37.0006 29.1138 35.722 28.7312 34.4834 27.9532C33.3319 27.2302 32.2698 26.2334 31.2158 24.8941C29.7252 22.9979 28.8086 21.175 28.285 18.7953C28.0375 17.6633 27.9768 16.6631 27.9069 15.2114C27.8771 14.5698 27.6617 13.1754 27.6617 13.1754C27.1861 10.7323 25.8178 8.55387 23.8235 7.06476C21.8291 5.57565 19.3516 4.88264 16.8741 5.12082C14.3966 5.35901 12.0965 6.51132 10.4224 8.3531C8.74822 10.1949 7.81998 12.5941 7.8186 15.0831C7.8186 19.9811 11.3372 24.0519 15.982 24.9193C15.982 24.9193 17.6536 25.1748 18.4866 25.1862C21.6798 25.2298 24.7217 26.1509 27.5196 28.3416C29.5395 29.9239 32.3649 32.3311 32.6938 38.8297V45.4486C32.6938 46.6335 33.1644 47.7699 34.0021 48.6079C34.8399 49.4458 35.9761 49.9167 37.161 49.917H48.2369C49.422 49.917 50.5585 49.4463 51.3965 48.6083C52.2345 47.7703 52.7053 46.6337 52.7053 45.4486V34.3739C52.7054 33.7872 52.59 33.2063 52.3655 32.6642C52.1411 32.1222 51.812 31.6296 51.3972 31.2148C50.9823 30.7999 50.4898 30.4709 49.9477 30.2464C49.4057 30.022 48.8247 29.9065 48.238 29.9067V29.9067Z" clip-rule="evenodd"/><g id="Vector_3"><path fill="black" d="M24.9968 47.1682C23.1186 49.0464 20.5713 50.1015 17.9152 50.1015C15.2591 50.1015 12.7117 49.0464 10.8336 47.1682C8.95541 45.2901 7.90027 42.7427 7.90027 40.0866C7.90027 37.4305 8.95541 34.8832 10.8336 33.005C12.7117 31.1269 15.2591 30.0717 17.9152 30.0717C20.5713 30.0717 23.1186 31.1269 24.9968 33.005C26.875 34.8832 27.9301 37.4305 27.9301 40.0866C27.9301 42.7427 26.875 45.2901 24.9968 47.1682Z"/><path fill="black" d="M49.7806 8.13247C51.659 10.0104 52.7144 12.5576 52.7148 15.2137C52.7151 17.8699 51.6602 20.4173 49.7823 22.2957C47.9043 24.1741 45.3571 25.2295 42.701 25.2298C40.0449 25.2301 37.4974 24.1753 35.619 22.2973C33.7407 20.4194 32.6852 17.8722 32.6849 15.216C32.6846 12.5599 33.7395 10.0125 35.6174 8.1341C37.4954 6.25572 40.0426 5.20029 42.6987 5.19998C45.3548 5.19968 47.9023 6.25452 49.7806 8.13247Z"/></g></g></g></svg>

<svg xmlns="http://www.w3.org/2000/svg" fill="none" aria-hidden="true" viewBox="0 0 217 55"><path fill="#000" fill-rule="evenodd" d="M66.343 42.33c0-3.28.336-4.963 2.019-4.963 1.71 0 2.047 1.683 2.047 4.963 0 3.282-.337 4.966-2.047 4.966-1.682 0-2.019-1.684-2.019-4.966Zm4.235 7.548h3.698V29.871H70.41v6.327h-.055c-.813-1.197-1.795-1.782-3.254-1.782-3.165 0-4.621 2.31-4.621 7.913 0 5.641 1.456 7.95 4.622 7.95 1.514 0 2.58-.584 3.422-1.976h.055v1.575h-.001Zm9.611-7.53c0-3.085.168-5.301 2.074-5.301 1.57 0 2.074 1.544 2.074 5.301 0 3.76-.503 5.302-2.074 5.302-1.905-.002-2.074-2.216-2.074-5.302Zm-3.864 0c0 5.245 1.287 8.016 5.938 7.933 4.426 0 5.94-2.77 5.94-7.933 0-5.243-1.29-8.015-5.94-7.93-4.426 0-5.938 2.77-5.938 7.93Zm21.354-2.108c0-1.46-.28-3.032-1.737-3.032-1.905 0-2.213 1.686-2.213 5.166 0 3.732.335 5.276 2.073 5.276 1.29 0 1.877-1.095 1.877-3.536h3.7c0 3.956-1.653 6.167-5.745 6.167-3.865 0-5.77-1.875-5.77-7.937 0-6.197 2.55-7.927 6.107-7.927 3.558 0 5.408 2.261 5.408 5.823h-3.7Zm13.413 7.899h-.056c-.815 1.474-2.218 2.141-3.847 2.141-2.409 0-3.839-1.31-3.839-4.3V34.814h3.866v10.382c0 1.51.505 2.099 1.658 2.099 1.32 0 2.05-.813 2.05-2.491v-9.99h3.867v15.062h-3.7v-1.738h.001Zm6.546-13.32h3.695v1.518h.056c.986-1.363 2.198-1.92 3.831-1.92 1.764 0 3.053.86 3.473 2.392h.056c.591-1.587 1.998-2.393 3.829-2.393 2.547 0 3.753 1.585 3.753 4.492v10.974h-3.865V39.33c0-1.264-.423-1.965-1.522-1.965-1.239 0-2.027.841-2.027 2.58v9.937h-3.867V39.33c0-1.264-.421-1.965-1.52-1.965-1.239 0-2.028.841-2.028 2.58v9.937h-3.864V34.82Zm24.817 5.819v-.59c0-1.403.45-3.002 1.991-3.002 1.596 0 1.875 1.291 1.958 3.592h-3.949Zm7.65 2.305v-.873c0-4.63-1.01-7.654-5.52-7.654-5.212 0-5.995 3.753-5.995 7.795 0 3.757.226 8.07 5.827 8.07 3.644 0 5.323-1.959 5.465-5.461h-3.477c-.221 1.848-.754 2.828-2.045 2.828-1.428 0-1.904-1.737-1.904-3.502v-1.204h7.649Zm2.291-8.123h3.697v1.739h.057c.814-1.475 2.22-2.142 3.846-2.142 2.411 0 3.84 1.308 3.84 4.302v11.164h-3.864V39.5c0-1.51-.508-2.099-1.658-2.099-1.322 0-2.052.813-2.052 2.491v9.99h-3.865V34.82h-.001Zm15.122-4.319h3.867v4.315h2.239v2.63h-2.239v8.152c0 1.176.253 1.653 1.371 1.653.309 0 .618-.026.868-.056v2.678c-.838.085-1.624.168-2.519.168-3.026 0-3.587-.92-3.587-3.968v-8.629h-1.961v-2.629h1.961v-4.314Zm16.431 17.638h-.059c-.812 1.474-2.218 2.141-3.846 2.141-2.408 0-3.838-1.31-3.838-4.3V34.814h3.867v10.382c0 1.51.503 2.099 1.655 2.099 1.32 0 2.05-.813 2.05-2.491v-9.99h3.867v15.062h-3.697v-1.738h.001Zm6.54-13.32h3.697v1.518h.056c.987-1.363 2.195-1.92 3.829-1.92 1.763 0 3.052.86 3.473 2.392h.056c.591-1.587 1.998-2.393 3.829-2.393 2.547 0 3.752 1.585 3.752 4.492v10.974h-3.864V39.33c0-1.264-.423-1.965-1.522-1.965-1.239 0-2.028.841-2.028 2.58v9.937H197.9V39.33c0-1.264-.42-1.965-1.519-1.965-1.24 0-2.028.841-2.028 2.58v9.937h-3.864V34.82Z" clip-rule="evenodd"/><path fill="#2360A5" fill-rule="evenodd" d="M48.238 29.907h-6.494c-.896-.004-2.829-.22-4.263-.65-.48-.143-1.759-.526-2.998-1.304-1.151-.723-2.213-1.72-3.267-3.059-1.49-1.896-2.407-3.719-2.931-6.099-.247-1.132-.308-2.132-.378-3.584-.03-.641-.245-2.036-.245-2.036a10.014 10.014 0 0 0-19.843 1.908c0 4.898 3.518 8.969 8.163 9.836 0 0 1.672.256 2.505.267 3.193.044 6.235.965 9.033 3.156 2.02 1.582 4.845 3.99 5.174 10.488v6.619a4.468 4.468 0 0 0 4.467 4.468h11.076a4.468 4.468 0 0 0 4.468-4.468V34.374a4.466 4.466 0 0 0-4.467-4.467Z" clip-rule="evenodd"/><path fill="#000" d="M24.997 47.168a10.015 10.015 0 1 1-14.163-14.162 10.015 10.015 0 0 1 14.163 14.162ZM49.78 8.132a10.015 10.015 0 1 1-14.16 14.165A10.015 10.015 0 0 1 49.78 8.132Z"/></svg>
